Numix/128x128/categories/gnome-applications.svg

<?xml version="1.0" encoding="UTF-8" standalone="no"?>
<svg
   xmlns:dc="http://purl.org/dc/elements/1.1/"
   xmlns:cc="http://creativecommons.org/ns#"
   xmlns:rdf="http://www.w3.org/1999/02/22-rdf-syntax-ns#"
   xmlns:svg="http://www.w3.org/2000/svg"
   xmlns="http://www.w3.org/2000/svg"
   xmlns:sodipodi="http://sodipodi.sourceforge.net/DTD/sodipodi-0.dtd"
   xmlns:inkscape="http://www.inkscape.org/namespaces/inkscape"
   width="128"
   height="128"
   viewBox="0 0 128 128"
   id="svg2"
   version="1.1"
   inkscape:version="0.91 r"
   sodipodi:docname="gnome-applications.svg">
  <metadata
     id="metadata20">
    <rdf:RDF>
      <cc:Work
         rdf:about="">
        <dc:format>image/svg+xml</dc:format>
        <dc:type
           rdf:resource="http://purl.org/dc/dcmitype/StillImage" />
      </cc:Work>
    </rdf:RDF>
  </metadata>
  <defs
     id="defs18" />
  <sodipodi:namedview
     pagecolor="#ffffff"
     bordercolor="#666666"
     borderopacity="1"
     objecttolerance="10"
     gridtolerance="10"
     guidetolerance="10"
     inkscape:pageopacity="0"
     inkscape:pageshadow="2"
     inkscape:window-width="961"
     inkscape:window-height="480"
     id="namedview16"
     showgrid="false"
     inkscape:zoom="1.84375"
     inkscape:cx="64"
     inkscape:cy="64"
     inkscape:window-x="10"
     inkscape:window-y="34"
     inkscape:window-maximized="0"
     inkscape:current-layer="svg2" />
  <g
     style="fill:#6f8bc0"
     id="g4"
     transform="translate(0.66756703,0.6660155)">
    <path
       d="m 95.351562,13.855469 c -20.753906,0 -24.648437,29.320312 -12.96875,29.320312 11.667969,0 33.710938,-29.320312 12.96875,-29.320312 z"
       id="path6"
       inkscape:connector-curvature="0" />
    <path
       d="m 60.898438,39.542969 c 6.210937,0.378906 13.035156,-23.527344 1.355468,-22.03125 -11.679687,1.511719 -7.578125,21.65625 -1.355468,22.03125 z"
       id="path8"
       inkscape:connector-curvature="0" />
    <path
       d="m 32.410156,54.402344 c 4.425782,-1.929688 0.570313,-20.820313 -6.941406,-15.664063 -7.511719,5.140625 2.527344,17.589844 6.941406,15.664063 z"
       id="path10"
       inkscape:connector-curvature="0" />
    <path
       d="m 44.871094,44.519531 c 5.257812,-1.070312 5.546875,-22.488281 -3.828125,-18.648437 -9.390625,3.855468 -1.433594,19.714844 3.828125,18.648437 z"
       id="path12"
       inkscape:connector-curvature="0" />
    <path
       d="m 72.34375,92.433594 c 0.9375,7.085937 -5.234375,10.574216 -11.261719,6.015625 C 41.863281,83.933594 92.902344,76.691406 89.53125,56.847656 86.746094,40.390625 35.832031,45.457031 30.039062,71.222656 26.105469,88.644531 46.183594,112.8125 67.136719,112.8125 c 10.3125,0 22.199219,-9.23047 24.414062,-20.925781 C 93.253906,82.96875 71.5625,86.535156 72.34375,92.433594 Z"
       id="path14"
       inkscape:connector-curvature="0" />
  </g>
</svg>

<svg width="128" xmlns="http://www.w3.org/2000/svg" height="128" viewBox="0 0 128 128" xmlns:xlink="http://www.w3.org/1999/xlink">
<g style="fill:#6f8bc0">
<path d="M 95.351562 13.855469 C 74.597656 13.855469 70.703125 43.175781 82.382812 43.175781 C 94.050781 43.175781 116.09375 13.855469 95.351562 13.855469 Z "/>
<path d="M 60.898438 39.542969 C 67.109375 39.921875 73.933594 16.015625 62.253906 17.511719 C 50.574219 19.023438 54.675781 39.167969 60.898438 39.542969 Z "/>
<path d="M 32.410156 54.402344 C 36.835938 52.472656 32.980469 33.582031 25.46875 38.738281 C 17.957031 43.878906 27.996094 56.328125 32.410156 54.402344 Z "/>
<path d="M 44.871094 44.519531 C 50.128906 43.449219 50.417969 22.03125 41.042969 25.871094 C 31.652344 29.726562 39.609375 45.585938 44.871094 44.519531 Z "/>
<path d="M 72.34375 92.433594 C 73.28125 99.519531 67.109375 103.007812 61.082031 98.449219 C 41.863281 83.933594 92.902344 76.691406 89.53125 56.847656 C 86.746094 40.390625 35.832031 45.457031 30.039062 71.222656 C 26.105469 88.644531 46.183594 112.8125 67.136719 112.8125 C 77.449219 112.8125 89.335938 103.582031 91.550781 91.886719 C 93.253906 82.96875 71.5625 86.535156 72.34375 92.433594 Z "/>
</g>
</svg>
